X: 800
T: Dawoge
%%abc-version 2.0
%%abcx-abcm2ps-target-version 5.9.1 (29 Sep 2008)
%%abc-creator hum2abc beta
%%abcx-conversion-date 2013/10/02 07:52:31
%%abc-edited-by Helmut Schaffrath
%%humdrum-veritas 1191860905
%%humdrum-veritas-data 470667760
%%continueall 1
%%barnumbers 0
L: 1/8
M: 2/4
K: G
A B [I:setbarnb 1]| 
B A/ B/ G F/ E/ | 
D B,/ D/E2 | 
A B/ A/G2 | 
E A/ B/ A F/ E/ | 
D2D2 | 
A> B B E | 
D2D2 | 
D> E F E | 
D2D2 | 
A B B A/ B/ | 
A F/ E/D2 | 
A B/ A/G2 | 
A A G F/ E/ | 
D2D2 | 
A> B A E | 
D2D2 | 
E A G E | 
D2D2 | 
B2A B | 
G2E2 | 
A2B B | 
A2G3/ E/ | 
DD2d | 
B2B2 | 
D2D2 | 
E2G E | 
D2D2 | 
E2A B | 
A GE2 | 
d> B D E | 
D2D2 | 
E A G E | 
D2D2 | 
D> E F E | 
D2D2 | 
B2A B | 
G2E2 | 
A2A B | 
A2F E | 
D2D2 | 
G2G E | 
D2z2 |]  



